!!!COA1: Gaspar van Weerbeke
!!!COA2: Josquin des Prez
!!!OTL: O Venus bant
!!!AGN: Song; Chanson
!!!SCT: Gas0507
!!!SCA: Gas0507
!!!voices: 3
**kern	**kern	**text	**kern
*part3	*part2	*part2	*part1
*staff3	*staff2	*staff2	*staff1
*I"Bassus	*I"Tenor	*	*I"Superius
*I'B	*I'T	*	*I'S
*clefF4	*clefGv2	*	*clefG2
*k[b-]	*k[]	*	*k[]
*M2/2	*M2/2	*	*M2/2
*met(C|)	*met(C|)	*	*met(C|)
=1	=1	=1	=1
*	*	*edit	*
4.GG	1G	O	4.g
8AA	.	.	8f
4BB-y	.	.	4d
[4C	.	.	[4e
=2	=2	=2	=2
4C]	2A	Ve-	4e]
4.D	.	.	4.f
.	2A	-nus'	.
8C	.	.	8e
4D	.	.	4f
=3	=3	=3	=3
4.E	1G	bant,	2g
8F	.	.	.
8GL	.	.	4d
8FJ	.	.	.
[4G	.	.	4e
=4	=4	=4	=4
8GL]	2r	.	4d
8AJ	.	.	.
2B-y	.	.	4.g
.	2G	o	.
.	.	.	8a
8AL	.	.	4b-i
8GJ	.	.	.
!!LO:LB:g=original
=5	=5	=5	=5
4.F	2A	vie-	8ccL
.	.	.	8b-i
.	.	.	8a
8E	.	.	8gJ
2D	2A	-rich	4.f#i
.	.	.	8e
=6	=6	=6	=6
4GG	1G	brant!	2g
4.C	.	.	.
.	.	.	2g
8D	.	.	.
4E	.	.	.
=7	=7	=7	=7
4C	2r	.	4.g
4.E	.	.	.
.	.	.	8f
.	2G	Hoe	4e
8F	.	.	.
4G	.	.	4d
=8	=8	=8	=8
4C	2.c	heeft	4e
4.F	.	.	4c
.	.	.	2cc
8G	.	.	.
4A	4c	dat	.
=9	=9	=9	=9
4F	2c	vrou-	2a
4.A	.	.	.
.	4.c	-ken	8aL
8B-yL	.	.	8g
8c	.	.	8a
8dJ	8B-i	.	8b-iJ
!!LO:LB:g=original
=10	=10	=10	=10
4c	2A	so	2cc
4.F	.	.	.
.	4.A	play-	4a
8GL	.	.	.
8A	.	.	[4cc
8B-yJ	8G	.	.
=11	=11	=11	=11
4A	2A	-sant	8ccL]
.	.	.	8b-i
4.D	.	.	8a
.	.	.	8gJ
.	2A	Mijn	4.f
8EL	.	.	.
8F	.	.	.
8GJ	.	.	8e
=12	=12	=12	=12
4F	2c	herte-	4a
4.FF	.	.	2a
.	2c	-ken	.
8GGL	.	.	.
8AA	.	.	8gL
8BB-yJ	.	.	8fJ
=13	=13	=13	=13
4.C	2G	nu	4.e
8BB-y	.	.	8f
4.GG	2G	be-	4.g
8AA	.	.	8f
=14	=14	=14	=14
8BB-yL	1d	-dwon-	4d
8CJ	.	.	.
2D	.	.	4.f
.	.	.	8g
4F	.	.	4a
!!LO:LB:g=original
=15	=15	=15	=15
8GL	2B-i	.	4g
8A	.	.	.
8B-y	.	.	2dd
8cJ	.	.	.
4d	2G	.	.
4G	.	.	[4b-i
=16	=16	=16	=16
4.F	1A	.	4b-]
.	.	.	8aL
8E	.	.	8gJ
2D	.	.	4.f#i
.	.	.	8e
=17	=17	=17	=17
4.GG	[1G	-ghen?	1g
8AA	.	.	.
4BB-y	.	.	.
4C	.	.	.
=18	=18	=18	=18
4GG	1G]	.	2r
4.C	.	.	.
.	.	.	2g
8D	.	.	.
[4E	.	.	.
=19	=19	=19	=19
8EL]	2r	.	2g
8FJ	.	.	.
4.G	.	.	.
.	2G	Dat	2g
8F	.	.	.
4E	.	.	.
!!LO:PB:g=original
=20	=20	=20	=20
4D	2d	doet	2a
4.F	.	.	.
.	2d	haer	2a
8E	.	.	.
4F	.	.	.
=21	=21	=21	=21
4C	2e	trooste-	2.g
*col	*	*	*
4.c	.	.	.
.	2e	-lijk	.
8B-y	.	.	.
*Xcol	*	*	*
4c	.	.	[4cc
=22	=22	=22	=22
2G	2d	on-	4cc]
.	.	.	8bL
.	.	.	8aJ
4r	2d	-der-	2b
4G	.	.	.
=23	=23	=23	=23
4A	1c	-stant,	4.cc
8GL	.	.	.
8FJ	.	.	8b-i
4E	.	.	4g
4F	.	.	4a
=24	=24	=24	=24
4C	2r	.	4g
4.F	.	.	2a
.	2c	Twelc	.
8G	.	.	.
[4A	.	.	8gL
.	.	.	8fJ
!!LO:LB:g=original
=25	=25	=25	=25
8AL]	2c	mi	4e
8GJ	.	.	.
4.F	.	.	2a
.	2c	hout	.
8GL	.	.	.
8A	.	.	4a
8B-yJ	.	.	.
=26	=26	=26	=26
2c	2A	in	2a
4c	2A	der	2a
[4FF	.	.	.
=27	=27	=27	=27
8FFL]	2c	vruech-	2.a
8FFJ	.	.	.
4.FF	.	.	.
.	2c	-den	.
8GGL	.	.	.
8AA	.	.	8gL
8BB-yJ	.	.	8fJ
=28	=28	=28	=28
2C	2G	bant	2.e
4C	2G	Ghe-	.
[4GG	.	.	[4g
=29	=29	=29	=29
4GG]	2d	-swon-	8gL]
.	.	.	8aJ
4G	.	.	4b-i
4A	2c	.	4cc
4F	.	.	[4a
!!LO:LB:g=original
=30	=30	=30	=30
2G	1B-i	.	4a]
.	.	.	8gL
.	.	.	8fJ
4r	.	.	2g
4G	.	.	.
=31	=31	=31	=31
2.D	[1A	-gen,	2a
.	.	.	2a
8CL	.	.	.
8BB-yJ	.	.	.
=32	=32	=32	=32
4AA	1A]	.	2.cc
4.A	.	.	.
8B-y	.	.	.
[4c	.	.	4b-i
=33	=33	=33	=33
8cL]	2r	.	2.a
8B-y	.	.	.
8A	.	.	.
8GJ	.	.	.
4F	2A	on-	.
8EL	.	.	8gL
8DJ	.	.	8fJ
=34	=34	=34	=34
4.C	2c	-danck	4.e
8D	.	.	8f
4E	2c	der	4g
[4F	.	.	[4a
!!LO:LB:g=original
=35	=35	=35	=35
8FL]	2A	nij-	8aL]
8GJ	.	.	8b-iJ
4.A	.	.	4.cc
.	2A	-ders	.
8GL	.	.	8b-iL
8F	.	.	8a
8EJ	.	.	8gJ
=36	=36	=36	=36
8DL	1d	ton-	4f
8C	.	.	.
8BB-y	.	.	4g
8AAJ	.	.	.
4GG	.	.	4f
8GL	.	.	[4g
8AJ	.	.	.
=37	=37	=37	=37
8B-yL	2B-i	.	4g]
8GJ	.	.	.
4d	.	.	4f
8GGL	2G	.	2g
8AA	.	.	.
8BBnX	.	.	.
8GGJ	.	.	.
=38	=38	=38	=38
4D	1A	.	4f#i
4C	.	.	2g
2D	.	.	.
.	.	.	4f#i
=39	=39	=39	=39
1GGl	1Gl	-gen.	1gl
==	==	==	==
*-	*-	*-	*-
!!!system-decoration: [*]
!!!RDF**kern: j = editorial accidental, optional, paren up
!!!RDF**kern: i = editorial accidental
!!!RDF**kern: l = terminal breve
!!!PTL: Gaspar van Weerbeke: Collected Works. V. Settings of Liturgical Texts, Songs, and Instrumental Works
!!!ISBN: 978-1-59551-544-5
!!!PPR: American Institute of Musicology
!!!PC#: Corpus Mensurabilis Musicae 106/V
!!!PDT: 2020
!!!PED: Kolb, Paul
!!!YEC: Copyright 2018, Kolb, Paul
!!!YEM: CC-BY-NC 4.0 (https://creativecommons.org/licenses/by-nc/4.0/legalcode)
!!!EED: Zybina, Karina
!!!EEV: 2021/08/26
!!!muse2ps: C^@{COM}^i2I150v90,90,120c122z18l2700t130
